X: 1368
T: An Raibh Tú Ag An gCarraig?
R: waltz
M: 3/4
K: Eminor
ed|"Em"BB/A/ Bd|"Em6"ee3 ef|"CM7"gg (g2 g)f/e/|"Bm7"f3e dB/A/|
"Em"B4 ef|"CM7"g>(g g2) gf/e/|"Bm7"ff3 ed/B/|"CM7"ee3 dd/e/|
"Em"f>e e2 gf/e/|d<B B2 AB/^c/|"Em"d<B B2 gf/e/|d<B BA FE|
"D"(D4 D)E/F/|"CM7"G>G G2 e(3d/B/G/|"Bm"FF F2 "CM7"B(3A/F/G/|E3 E"D"D/E/ F>E|"Em"E4||

